X:5
T:Polonäs ur Nils-Johan Nybergs notbok
R:Slängpolska
B:http://www.smus.se/earkiv/fmk/browselarge.php?lang=sw&katalogid=M+46&bildnr=00007
B:Nils-Johan Nybergs notbok
O:Skåne, Herberga
Z:Nils L
M:3/4
L:1/16
K:G
d2Bd g2fe d4 | d2ef g2fe d4 | e2c2 c2e2 efge | d2B2 B2d2 defd |
c2B2 c2e2 a2c2 | B2AG A8 :: A2D2 D2F2 A2c2 | c2BA BcdB G4 |
e2c2 c2e2 e2g2 | g2fe fgaf d4 | B2d2 g2b2 a2g2 | f2ga g4 G4 :|

